X: 20433
T: NELSON'S HORNPIPE
N: AKA Admiral Nelson's Hornpipe
C:
%R: hornpipe, reel
B: Elias Howe "The Musician's Companion" 1843 p.43 #3
S: http://imslp.org/wiki/The_Musician's_Companion_(Howe,_Elias)
Z: 2015 John Chambers <jc:trillian.mit.edu>
M: C|
L: 1/8
K: D
% - - - - - - - - - - - - - - - - - - - - - - - - -
AG |\
D2d2 d2cd | ecAc d2de | fdfd gfge | afdf ecAG |\
F2d2 d2cd | ecAc d2de | fdfd cBA^G | A2A2 A2 :|
|: fg |\
agfe dcBA | B2G2 G2ga | bagf gfed | c2A2 A2fg |\
afaf bgbg | afaf bfbg | agbg fedc | d2d2 d2 :|
% - - - - - - - - - - - - - - - - - - - - - - - - -

%%sep 1 1 500

